X:4345
L:1/4
M:3/4
K:C
"C" (e3 | e) ^d e | (g3 | g) z z | (e3 | e) f3/2 e/ |"G7" (d3 | d) z z | (f3 | f) e f | (a3 | 
 a) z z | a2 g | g2 f |"C" e3 | e/B/ c/d/ e/f/ ||"C" g3 | e3 |"G7" (d3 | d/)^c/ d/e/ f/g/ | a3 | 
 f3 |"C" (e3 | e/)B/ c/d/ e/f/ | g3 | e3 |"F" f (a2 | a) g f |"C" e3/2 e/ e | e g2 |"G7" f e d | 
"C" c z c |:[K:F]"F" c2 A | c3/2 a/ f | c2 A | c3/2 a/ f | (a3 | a) g f |"C7" e3 | d z z | B2 G | 
 B3/2 b/ g | B2 G | B3/2 b/ g | (b3 | b) a g |"F" (f3 |1 f) e d :|2 f c f |:"Bb" e2 (d | 
 d) b3/2 g/ |"F" d2 (c | c) a3/2 f/ |"C7" (c'3 |1 c') g ^g |"F" (a3 | a) c f :|2 z/ b/ a g | 
"F" f3/2 f/ f | f z z |]

